X: 39938
T: Thompson's
R: jig
M: 6/8
K: Gmajor
B2 B GBd|gba ged|e2 e dBG|ABA A2 D|
G2 D GB/c/d|gba ged|e2 e dBA|AGF G2:|
gba ged|e2 e dBG|gba ged|e2 a age|
gba ged|ee/e/e dBG|B2 B dBA|AGF G2:|

